modules/js-and-css/speculation-rules/.wordpress-org/icon.svg

<svg width="297" height="297" viewBox="0 0 297 297" fill="none" xmlns="http://www.w3.org/2000/svg">
<rect width="297" height="297" rx="46" fill="#0073AA"/>
<rect x="155" y="100" width="29.5686" height="29.5686" rx="8.27632" fill="white"/>
<path d="M155 152.849V188.587C155 193.157 158.705 196.863 163.276 196.863H176.292C180.863 196.863 184.569 193.157 184.569 188.587V144.994C184.569 138.552 177.532 134.58 172.016 137.908L159 145.763C156.518 147.261 155 149.949 155 152.849Z" fill="white"/>
<path d="M188.647 121.292V108.276C188.647 103.705 192.352 100 196.923 100H213.322C216.132 100 218.828 101.104 220.832 103.074L230.09 112.178C231.952 114.008 233 116.51 233 119.12V144.222C233 146.833 231.951 149.335 230.09 151.165L220.249 160.841C218.701 162.363 216.617 163.216 214.446 163.216H196.923C192.352 163.216 188.647 159.51 188.647 154.939V141.923C188.647 137.352 192.352 133.647 196.923 133.647H215.922C217.048 133.647 217.961 132.734 217.961 131.608C217.961 130.482 217.048 129.569 215.922 129.569H196.923C192.352 129.569 188.647 125.863 188.647 121.292Z" fill="white"/>
<path d="M124.942 100L110.06 100C107.636 100 105.67 101.966 105.67 104.39L105.67 125.22C105.67 127.645 107.636 129.611 110.06 129.611L138.05 129.611C141.504 129.611 143.606 125.806 141.766 122.882L128.658 102.052C127.854 100.775 126.451 100 124.942 100Z" fill="white"/>
<path d="M105.779 159.129L105.689 138.104C105.678 135.672 107.647 133.695 110.079 133.695H125.041C126.531 133.695 127.962 134.28 129.024 135.325L141.138 147.237C142.125 148.208 142.681 149.535 142.681 150.92V179.889C142.681 181.282 142.119 182.615 141.122 183.588L128.645 195.753C127.825 196.553 126.725 197 125.58 197H110.188C107.763 197 105.797 195.035 105.797 192.61V171.891C105.797 169.466 107.763 167.5 110.188 167.5H125.622C126.726 167.5 127.622 166.605 127.622 165.5C127.622 164.396 126.726 163.5 125.622 163.5H110.169C107.752 163.5 105.789 161.546 105.779 159.129Z" fill="white"/>
<path d="M81.3856 167.5L97.1948 167.5C99.6195 167.5 101.585 169.466 101.585 171.89L101.585 192.61C101.585 195.035 99.6196 197 97.1948 197L68.8028 197C65.3797 197 63.2734 193.257 65.0502 190.331L77.6331 169.611C78.4292 168.3 79.8518 167.5 81.3856 167.5Z" fill="white"/>
<path d="M101.587 125.22V104.39C101.587 101.966 99.6214 100 97.1966 100H82.2161C80.7257 100 79.295 100.586 78.2324 101.631L66.1189 113.543C65.1315 114.514 64.5753 115.841 64.5753 117.225V146.227C64.5753 147.6 65.1223 148.917 66.0954 149.886L78.478 162.22C79.3009 163.04 80.4149 163.5 81.5763 163.5H97.1966C99.6214 163.5 101.587 161.534 101.587 159.11V138.085C101.587 135.66 99.6213 133.695 97.1966 133.695H81.6774C80.5495 133.695 79.6352 132.78 79.6352 131.653C79.6352 130.525 80.5495 129.611 81.6774 129.611H97.1966C99.6214 129.611 101.587 127.645 101.587 125.22Z" fill="white"/>
</svg>

<svg xmlns="http://www.w3.org/2000/svg" width="297" height="297" fill="none"><rect width="297" height="297" fill="#0073AA" rx="46"/><rect width="29.569" height="29.569" x="155" y="100" fill="#fff" rx="8.276"/><path fill="#fff" d="M155 152.849v35.738a8.276 8.276 0 0 0 8.276 8.276h13.016a8.277 8.277 0 0 0 8.277-8.276v-43.593c0-6.442-7.037-10.414-12.553-7.086L159 145.763a8.277 8.277 0 0 0-4 7.086ZM188.647 121.292v-13.016a8.276 8.276 0 0 1 8.276-8.276h16.399c2.81 0 5.506 1.104 7.51 3.074l9.258 9.104a9.734 9.734 0 0 1 2.91 6.942v25.102a9.739 9.739 0 0 1-2.91 6.943l-9.841 9.676a8.277 8.277 0 0 1-5.803 2.375h-17.523a8.276 8.276 0 0 1-8.276-8.277v-13.016a8.276 8.276 0 0 1 8.276-8.276h18.999a2.04 2.04 0 0 0 0-4.078h-18.999a8.276 8.276 0 0 1-8.276-8.277ZM124.942 100H110.06a4.39 4.39 0 0 0-4.39 4.39v20.83a4.39 4.39 0 0 0 4.39 4.391h27.99c3.454 0 5.556-3.805 3.716-6.729l-13.108-20.83a4.391 4.391 0 0 0-3.716-2.052ZM105.779 159.129l-.09-21.025a4.39 4.39 0 0 1 4.39-4.409h14.962c1.49 0 2.921.585 3.983 1.63l12.114 11.912a5.167 5.167 0 0 1 1.543 3.683v28.969a5.167 5.167 0 0 1-1.559 3.699l-12.477 12.165c-.82.8-1.92 1.247-3.065 1.247h-15.392a4.39 4.39 0 0 1-4.391-4.39v-20.719a4.391 4.391 0 0 1 4.391-4.391h15.434a2 2 0 0 0 0-4h-15.453a4.39 4.39 0 0 1-4.39-4.371ZM81.386 167.5h15.809a4.39 4.39 0 0 1 4.39 4.39v20.72a4.39 4.39 0 0 1-4.39 4.39H68.803c-3.423 0-5.53-3.743-3.753-6.669l12.583-20.72a4.39 4.39 0 0 1 3.753-2.111ZM101.587 125.22v-20.83a4.39 4.39 0 0 0-4.39-4.39h-14.98c-1.491 0-2.922.586-3.985 1.631L66.12 113.543a5.165 5.165 0 0 0-1.544 3.682v29.002c0 1.373.547 2.69 1.52 3.659l12.383 12.334a4.389 4.389 0 0 0 3.098 1.28h15.62a4.39 4.39 0 0 0 4.391-4.39v-21.025a4.39 4.39 0 0 0-4.39-4.39h-15.52a2.043 2.043 0 0 1 0-4.084h15.52a4.39 4.39 0 0 0 4.39-4.391Z"/></svg>
